X: 1
T: Theme from Espa\~na
C: Emmanual Chabrier, arr. Nancy Dickson
R: jig
Z: 2011 John Chambers <jc:trillian.mit.edu>
M: 6/8
L: 1/8
K: C
G |\
"C"GGc A2G | "C"GGA BAG | "G"GGG A2A | "G7"BBc BAG |\
"C"GGc A2G | "C"GGA BAG | "G"GGG A2A | "G7"BAG [1 "C"c2 :|2 "C"ced ||
|: "C"cAG CEG | "G"B2A GAd | "G"BAG GAB | "C"c2d eed |\
"C"cAG CEG | "G"B2A GAd | "G"BAG "G7"GAB | "C"c3 [1 e2d :|2 c2 |]
